src/images/milvus.svg

<svg fill="none" height="16" viewBox="0 0 67 16" width="67" xmlns="http://www.w3.org/2000/svg"><g fill="#fff"><path d="m0 8.43817c0-.68164.115025-1.26926.345076-1.76287.23005-.4936.552121-.91668.966214-1.26925.41409-.35258.8972-.61113 1.44932-.77567.55212-.16453 1.17326-.25855 1.8174-.25855.80518 0 1.51833.14103 2.16247.42308.62114.28206 1.15026.65815 1.54134 1.15175.39109-.4936.8972-.86969 1.51834-1.15175.62114-.28205 1.33434-.42308 2.13944-.42308.6442 0 1.2423.09402 1.7944.25855.5521.16454 1.0353.42309 1.4493.77567.4141.35257.7362.77565.9663 1.26925.23.49361.345 1.08123.345 1.76287v6.72243h-3.2437v-5.78223c0-.70515-.138-1.19875-.4141-1.50431-.276-.30557-.6671-.4466-1.1962-.4466-.5292 0-.9432.18805-1.2883.54062-.3221.35257-.48313.91669-.48313 1.71586v5.50016h-3.24371v-5.50016c0-.77567-.16104-1.33978-.48311-1.71586-.32207-.35257-.73616-.54062-1.26528-.54062-.50611 0-.9202.14103-1.19626.4466-.29907.30556-.4371.79916-.4371 1.50431v5.78223h-3.24371z"/><path d="m19.1865 1.85689c0-.51711.1611-.963696.5061-1.31627.3451-.352573.7592-.54062 1.2883-.54062.5061 0 .9432.188047 1.2883.54062.3451.352574.5291.79916.5291 1.31627s-.184.9637-.5291 1.31628c-.3451.35257-.7822.51711-1.2883.51711s-.9432-.16454-1.2883-.51711c-.322-.37608-.5061-.79917-.5061-1.31628zm.1841 4.27789c0-.54061.161-.91669.4601-1.12824.299-.21154.7131-.32906 1.2192-.32906.3681 0 .6902.04701.9893.14103.299.09402.4831.14103.5751.16453v10.20116h-3.2437z"/><path d="m25.6045 1.45731c0-.540613.161-.91669.4601-1.128234s.7132-.329076 1.2193-.329076c.368 0 .6901.047013.9892.141033.299.094019.4831.141028.5751.164533v14.855134h-3.2437z"/><path d="m34.7833 15.1607c-.4141-.7522-.8282-1.5278-1.2193-2.327s-.7592-1.5513-1.0812-2.233c-.3221-.68162-.5982-1.29275-.8052-1.76284-.2071-.49361-.3451-.79917-.4141-.9402-.115-.28206-.2301-.58762-.3451-.91669-.138-.35258-.184-.65814-.184-.91669 0-.37608.138-.70515.4141-.98721.276-.25855.6671-.39958 1.2192-.39958.4371 0 .7822.04701 1.0583.14103.276.09402.4141.14103.4601.16454.23.68164.4601 1.36328.7361 2.04492.2531.68164.5061 1.31628.7362 1.9039.23.58762.4371 1.10472.6441 1.55132.1841.4466.3221.7522.4141.9402.092-.188.2071-.4936.3911-.9167.1841-.4231.3681-.91669.5751-1.4338.2071-.51711.4141-1.05771.6212-1.57482.207-.51711.3911-.98721.5291-1.33978.092-.21154.161-.39958.2761-.58762.092-.18804.23-.32907.368-.4701.1381-.14103.3221-.23505.5061-.30557.2071-.07051.4601-.09402.7362-.09402s.5061.02351.7362.09402c.207.04701.4141.11753.5751.18805.161.07051.2991.14102.3911.18803.092.07052.161.09402.184.11752-.046.25856-.184.61114-.3911 1.12825-.207.4936-.4371 1.08122-.7131 1.71585-.2761.63463-.5751 1.31628-.8972 2.02139-.3221.7052-.6442 1.3868-.9432 2.045-.2991.6581-.5982 1.2457-.8742 1.7863-.2761.5171-.4831.9402-.6212 1.2223h-3.0826z"/><path d="m47.2291 10.2717c0 1.4338.6211 2.1389 1.8864 2.1389s1.8864-.7051 1.8864-2.1389v-4.13691c0-.54061.161-.91669.4601-1.12823.2991-.21155.7132-.32907 1.2193-.32907.368 0 .6901.04701.9892.14103s.4831.14103.5751.16454v5.89974c0 .7756-.138 1.4338-.3911 1.9979-.253.5641-.6211 1.0342-1.0812 1.4103s-.9892.6581-1.6334.8462c-.6211.188-1.3113.282-2.0244.282-.7362 0-1.4033-.094-2.0245-.282-.6211-.1881-1.1732-.4701-1.6333-.8462s-.8052-.8462-1.0813-1.4103c-.253-.5641-.391-1.2458-.391-1.9979v-4.74801c0-.54061.161-.91669.4601-1.12823.299-.21155.7131-.32907 1.2192-.32907.3681 0 .6902.04701.9892.14103.2991.09402.4831.14103.5752.16454z"/><path d="m57.5356 11.9639c.115.094.276.188.5291.3056.253.1175.5521.235.8972.329.3451.0941.7361.1881 1.1732.2586s.8972.1175 1.3803.1175c.5522 0 .9662-.047 1.2423-.1645.2761-.094.4141-.2821.4141-.5406 0-.2821-.115-.4701-.3451-.5641-.23-.0941-.5981-.1881-1.1042-.2586l-1.0583-.1175c-.5291-.0705-1.0352-.1646-1.5183-.3056s-.9202-.3291-1.2883-.5876c-.368-.2586-.6671-.58764-.8742-.98722-.207-.39958-.322-.89318-.322-1.50431 0-.51711.092-.9872.276-1.41029.1841-.42309.4601-.79916.8512-1.12823s.8972-.58762 1.4953-.75216c.5982-.18804 1.3343-.28206 2.1625-.28206.8512 0 1.5644.04701 2.1855.16453s1.1273.28206 1.5874.51711c.253.14103.4601.30556.6211.4936s.23.4466.23.72866c0 .21154-.046.42308-.138.58762-.092.16453-.184.32906-.2991.44659-.115.11752-.23.21155-.322.28206-.092.07052-.1611.11753-.1841.11753-.046-.04701-.161-.11753-.322-.23506-.1841-.11752-.4141-.21154-.7362-.32907-.2991-.09402-.6671-.18803-1.0812-.28205s-.8972-.11752-1.4494-.11752c-.5981 0-1.0352.07051-1.2652.21154-.2301.14103-.3451.32906-.3451.56411s.115.39958.3221.4936c.207.09402.5291.18804.9662.25856l1.8404.25855c.4601.07052.8972.16454 1.3113.30557s.8051.32906 1.1272.56411c.3221.25855.5981.56412.7822.94023.184.376.299.8461.299 1.4103 0 1.1517-.437 2.0449-1.2882 2.703-.8512.6347-2.0475.9637-3.5658.9637-.7822 0-1.4953-.047-2.1165-.1645-.6211-.1175-1.1272-.2351-1.5873-.3761-.4371-.141-.8052-.3055-1.0813-.4466-.276-.1645-.4601-.282-.5751-.3526z"/></g></svg>

<svg width="67" height="16" viewBox="0 0 67 16" fill="none" xmlns="http://www.w3.org/2000/svg">
<path d="M0 8.43817C0 7.75653 0.115025 7.16891 0.345076 6.6753C0.575126 6.1817 0.897197 5.75862 1.31129 5.40605C1.72538 5.05347 2.20849 4.79492 2.76061 4.63038C3.31273 4.46585 3.93387 4.37183 4.57801 4.37183C5.38319 4.37183 6.09634 4.51286 6.74048 4.79491C7.36162 5.07697 7.89074 5.45306 8.28182 5.94666C8.67291 5.45306 9.17902 5.07697 9.80016 4.79491C10.4213 4.51286 11.1345 4.37183 11.9396 4.37183C12.5838 4.37183 13.1819 4.46585 13.734 4.63038C14.2861 4.79492 14.7693 5.05347 15.1833 5.40605C15.5974 5.75862 15.9195 6.1817 16.1496 6.6753C16.3796 7.16891 16.4946 7.75653 16.4946 8.43817V15.1606H13.2509V9.37837C13.2509 8.67322 13.1129 8.17962 12.8368 7.87406C12.5608 7.56849 12.1697 7.42746 11.6406 7.42746C11.1114 7.42746 10.6974 7.61551 10.3523 7.96808C10.0302 8.32065 9.86917 8.88477 9.86917 9.68394V15.1841H6.62546V9.68394C6.62546 8.90827 6.46442 8.34416 6.14235 7.96808C5.82028 7.61551 5.40619 7.42746 4.87707 7.42746C4.37096 7.42746 3.95687 7.56849 3.68081 7.87406C3.38174 8.17962 3.24371 8.67322 3.24371 9.37837V15.1606H0V8.43817Z" fill="white"/>
<path d="M19.1865 1.85689C19.1865 1.33978 19.3476 0.893194 19.6926 0.54062C20.0377 0.188047 20.4518 0 20.9809 0C21.487 0 21.9241 0.188047 22.2692 0.54062C22.6143 0.893194 22.7983 1.33978 22.7983 1.85689C22.7983 2.374 22.6143 2.82059 22.2692 3.17317C21.9241 3.52574 21.487 3.69028 20.9809 3.69028C20.4748 3.69028 20.0377 3.52574 19.6926 3.17317C19.3706 2.79709 19.1865 2.374 19.1865 1.85689ZM19.3706 6.13478C19.3706 5.59417 19.5316 5.21809 19.8307 5.00654C20.1297 4.795 20.5438 4.67748 21.0499 4.67748C21.418 4.67748 21.7401 4.72449 22.0392 4.81851C22.3382 4.91253 22.5223 4.95954 22.6143 4.98304V15.1842H19.3706V6.13478Z" fill="white"/>
<path d="M25.6045 1.45731C25.6045 0.916697 25.7655 0.54062 26.0646 0.329076C26.3637 0.117532 26.7778 0 27.2839 0C27.6519 0 27.974 0.047013 28.2731 0.141033C28.5721 0.235052 28.7562 0.282061 28.8482 0.305566V15.1607H25.6045V1.45731Z" fill="white"/>
<path d="M34.7833 15.1607C34.3692 14.4085 33.9551 13.6329 33.564 12.8337C33.1729 12.0345 32.8048 11.2824 32.4828 10.6007C32.1607 9.91908 31.8846 9.30795 31.6776 8.83786C31.4705 8.34425 31.3325 8.03869 31.2635 7.89766C31.1485 7.6156 31.0334 7.31004 30.9184 6.98097C30.7804 6.62839 30.7344 6.32283 30.7344 6.06428C30.7344 5.6882 30.8724 5.35913 31.1485 5.07707C31.4245 4.81852 31.8156 4.67749 32.3677 4.67749C32.8048 4.67749 33.1499 4.7245 33.426 4.81852C33.702 4.91254 33.8401 4.95955 33.8861 4.98306C34.1161 5.6647 34.3462 6.34634 34.6222 7.02798C34.8753 7.70962 35.1283 8.34426 35.3584 8.93188C35.5884 9.5195 35.7955 10.0366 36.0025 10.4832C36.1866 10.9298 36.3246 11.2354 36.4166 11.4234C36.5086 11.2354 36.6237 10.9298 36.8077 10.5067C36.9918 10.0836 37.1758 9.59001 37.3828 9.0729C37.5899 8.55579 37.7969 8.01519 38.004 7.49808C38.211 6.98097 38.3951 6.51087 38.5331 6.1583C38.6251 5.94676 38.6941 5.75872 38.8092 5.57068C38.9012 5.38264 39.0392 5.24161 39.1772 5.10058C39.3153 4.95955 39.4993 4.86553 39.6833 4.79501C39.8904 4.7245 40.1434 4.70099 40.4195 4.70099C40.6956 4.70099 40.9256 4.7245 41.1557 4.79501C41.3627 4.84202 41.5698 4.91254 41.7308 4.98306C41.8918 5.05357 42.0299 5.12408 42.1219 5.17109C42.2139 5.24161 42.2829 5.26511 42.3059 5.28861C42.2599 5.54717 42.1219 5.89975 41.9148 6.41686C41.7078 6.91046 41.4777 7.49808 41.2017 8.13271C40.9256 8.76734 40.6266 9.44899 40.3045 10.1541C39.9824 10.8593 39.6603 11.5409 39.3613 12.1991C39.0622 12.8572 38.7631 13.4448 38.4871 13.9854C38.211 14.5025 38.004 14.9256 37.8659 15.2077H34.7833V15.1607Z" fill="white"/>
<path d="M47.2291 10.2717C47.2291 11.7055 47.8502 12.4106 49.1155 12.4106C50.3808 12.4106 51.0019 11.7055 51.0019 10.2717V6.13479C51.0019 5.59418 51.1629 5.2181 51.462 5.00656C51.7611 4.79501 52.1752 4.67749 52.6813 4.67749C53.0493 4.67749 53.3714 4.7245 53.6705 4.81852C53.9696 4.91254 54.1536 4.95955 54.2456 4.98306V10.8828C54.2456 11.6584 54.1076 12.3166 53.8545 12.8807C53.6015 13.4448 53.2334 13.9149 52.7733 14.291C52.3132 14.6671 51.7841 14.9491 51.1399 15.1372C50.5188 15.3252 49.8286 15.4192 49.1155 15.4192C48.3793 15.4192 47.7122 15.3252 47.091 15.1372C46.4699 14.9491 45.9178 14.6671 45.4577 14.291C44.9976 13.9149 44.6525 13.4448 44.3764 12.8807C44.1234 12.3166 43.9854 11.6349 43.9854 10.8828V6.13479C43.9854 5.59418 44.1464 5.2181 44.4455 5.00656C44.7445 4.79501 45.1586 4.67749 45.6647 4.67749C46.0328 4.67749 46.3549 4.7245 46.6539 4.81852C46.953 4.91254 47.137 4.95955 47.2291 4.98306V10.2717Z" fill="white"/>
<path d="M57.5356 11.9639C57.6506 12.0579 57.8116 12.1519 58.0647 12.2695C58.3177 12.387 58.6168 12.5045 58.9619 12.5985C59.307 12.6926 59.698 12.7866 60.1351 12.8571C60.5722 12.9276 61.0323 12.9746 61.5154 12.9746C62.0676 12.9746 62.4816 12.9276 62.7577 12.8101C63.0338 12.7161 63.1718 12.528 63.1718 12.2695C63.1718 11.9874 63.0568 11.7994 62.8267 11.7054C62.5967 11.6113 62.2286 11.5173 61.7225 11.4468L60.6642 11.3293C60.1351 11.2588 59.629 11.1647 59.1459 11.0237C58.6628 10.8827 58.2257 10.6946 57.8576 10.4361C57.4896 10.1775 57.1905 9.84846 56.9834 9.44888C56.7764 9.0493 56.6614 8.5557 56.6614 7.94457C56.6614 7.42746 56.7534 6.95737 56.9374 6.53428C57.1215 6.11119 57.3975 5.73512 57.7886 5.40605C58.1797 5.07698 58.6858 4.81843 59.2839 4.65389C59.8821 4.46585 60.6182 4.37183 61.4464 4.37183C62.2976 4.37183 63.0108 4.41884 63.6319 4.53636C64.253 4.65388 64.7592 4.81842 65.2193 5.05347C65.4723 5.1945 65.6794 5.35903 65.8404 5.54707C66.0014 5.73511 66.0704 5.99367 66.0704 6.27573C66.0704 6.48727 66.0244 6.69881 65.9324 6.86335C65.8404 7.02788 65.7484 7.19241 65.6333 7.30994C65.5183 7.42746 65.4033 7.52149 65.3113 7.592C65.2193 7.66252 65.1502 7.70953 65.1272 7.70953C65.0812 7.66252 64.9662 7.592 64.8052 7.47447C64.6211 7.35695 64.3911 7.26293 64.069 7.1454C63.7699 7.05138 63.4019 6.95737 62.9878 6.86335C62.5737 6.76933 62.0906 6.74583 61.5384 6.74583C60.9403 6.74583 60.5032 6.81634 60.2732 6.95737C60.0431 7.0984 59.9281 7.28643 59.9281 7.52148C59.9281 7.75653 60.0431 7.92106 60.2502 8.01508C60.4572 8.1091 60.7793 8.20312 61.2164 8.27364L63.0568 8.53219C63.5169 8.60271 63.954 8.69673 64.3681 8.83776C64.7822 8.97879 65.1732 9.16682 65.4953 9.40187C65.8174 9.66042 66.0934 9.96599 66.2775 10.3421C66.4615 10.7181 66.5765 11.1882 66.5765 11.7524C66.5765 12.9041 66.1395 13.7973 65.2883 14.4554C64.4371 15.0901 63.2408 15.4191 61.7225 15.4191C60.9403 15.4191 60.2272 15.3721 59.606 15.2546C58.9849 15.1371 58.4788 15.0195 58.0187 14.8785C57.5816 14.7375 57.2135 14.573 56.9374 14.4319C56.6614 14.2674 56.4773 14.1499 56.3623 14.0793L57.5356 11.9639Z" fill="white"/>
</svg>
